public/avatar/hat/213.svg

<svg xmlns:xlink="http://www.w3.org/1999/xlink" height="92.9" width="100.7" xmlns="http://www.w3.org/2000/svg"><use height="34.9" transform="translate(19.5 40.9)" width="38.25" xlink:href="#a"/><defs><g id="a" fill-rule="evenodd"><path d="M17.05-8.45q2.15.35-6.4 17h-1.9L4.9.7 10.3-4q5.65-4.65 6.75-4.45" transform="translate(19.15 8.85)"/><path d="M16.9-7.95q.85 0-5.65 13.5L7.4-.15l4.45-3.9q4.5-3.9 5.05-3.9" fill="#fff9f5" transform="translate(19.15 8.85)"/><path d="m10.15 2.45 6.4-8.75L11.9 4.3l-1.6.15-.15-2" fill="#d1b8a7" transform="translate(19.15 8.85)"/><path d="M-14.5-.8q-3.15-7.45-1.95-8 1.2-.5 10.05 7L-4.45.3-9.7 7.7l-1.4-1.15-3.4-7.35" transform="translate(19.15 8.85)"/><path d="M-13.55-1.2q-3.05-6.75-2.5-6.75l9.5 7.8-3.85 5.7-3.15-6.75" fill="#fff9f5" transform="translate(19.15 8.85)"/><path d="m-7.45 2.3-6.75-8.6L-5.95.3l-1.5 2" fill="#d1b8a7" transform="translate(19.15 8.85)"/><path d="M1 3.15 3.75 5.4q.1.65-1.9 2.5l-3.7-.85-2.95-.15-2.85.75q-4.9 1-2.7-1.8Q-8.4 3.4-3.9 3.3L1 3.15" transform="translate(19.15 8.85)"/><path d="M3.2 1.3q.6-.25 3.1 2.9 2.7 3.4 3 8.1.25 3.75-.85 8.25-6.5-3.9-8-6.25l-3.15-8 5.9-5" transform="translate(19.15 8.85)"/><path d="M-4.2 5.05q-1.55.15-4.75 3.15l-7.25 8.25 2.1-6.4q1-3.15 4.65-6.9Q-5.9-.5-3.75-.95q7.55-1.5 12.4 2.4 1.4 1.15 3 4.3 1.6 3.1 2.25 5.8.9 3.5.65 8.75l-6.9-16-11.85.75" transform="translate(19.15 8.85)"/><path d="m-11.45 10.85-1.2 1.8q-.6.8-.6 1.9 0 2.2-.4 3.85-.5 1.85-1.2.85-1.9-2.65-.15-6.4 2.05-4.4 3.55-4.5 2.3-.15 0 2.5" transform="translate(19.15 8.85)"/><path d="m-3.1 6.9-1.4.05 1.8-2.8q.25.85-.4 2.75" fill="#fff" transform="translate(19.15 8.85)"/><path d="M11.45-5.6q.2 2.15-1.2 6.3Q8.6 5.4 6.6 5.45L-.5-1 .8-4.55l1.25-1.6q.7-.85.75-1.75.5.6.3 5.65.1-1.05 1.2-2.6L5.95-7.2q.8 1.15.95 2.85L7-1.2l4.45-4.4" transform="translate(19.15 8.85)"/><path d="m-10.4-4.8 1.95 2.15q1.2 1.45 2 1.8l.05-4.4q1.7 1.4 3.1 3.35-.2-2.8 1.35-5.35L-.5-4q.95 1.95.15 3.35L-2.1.9q-3.95 4.85-6.1 3.85-.8-.35-1.05-1.8L-9.55.7q-.9-4-.85-5.5" transform="translate(19.15 8.85)"/><path d="M-.4 2.35q-2.95 1.4-3.85 1.35l-.05-.8q-.5.55-1.15.45-.75-.55-1.05-.5l-.45.75-.65.15-.75.8q-.9-.9-.25-1.25v-.6q0-3.85-.15-4.25.45.4 1 1.6l1.15 1.3.75-1.2.6 1.95.3.1 1.6-1.3.1 1.55 2.85-.1" fill="#333" transform="translate(19.15 8.85)"/><path d="m-8.5 6.3 3.65-1.85v2.1l-2.65 5.9-1-6.15m5.55.4 2.6-2.65q1.4 2.9 1.4 6.15 0 3.25-2.25 6l-1.5-4.9-.25-4.6" transform="translate(19.15 8.85)"/><path d="M.9 5.4q.3.15 1.05 1.8 2.45 8.6 2.2 8.65Q3.6 16 2 14.4.65 13.05.2 11.55V9.3l-.25-1.6q.1-.8.95-2.3" fill="#333" transform="translate(19.15 8.85)"/><path d="m1.85 8 1.05.8q1 .8 1.5.85 1.45.1 3.25-1.6l-.05 1.9q-.75 2.95-3.4 2.95-1.5-.05-2.65-2.45L1.85 8" fill="#333" transform="translate(19.15 8.85)"/><path d="M-13.1 23.05q-1.85.1-2.8-1.85l-.55-1.95.5-3 2.35-2.7-.65 2.6q-.35 2.9 1.15 4.4 2.4 2.35 3.5-3.5l.65 2.7q-1.15 3.15-4.15 3.3m1.45-19.1 1.75 2-2.1 2.6q-.75.75-6.15 2.25l2.4-3.1q1.35-1.75 4.1-3.75" transform="translate(19.15 8.85)"/><path d="m-14.45 8.8.35-.25h.75q.4 1.65 0 2.15l-4 3 2.9-4.9m2-6 1 1.65q-.15 1.5-.65 1.5l-4.75-.15 4.4-3M13 8.55l-2.15-2.6 1.75-2 4.15 3.75 2.35 3.1Q13.75 9.3 13 8.55" transform="translate(19.15 8.85)"/><path d="m14.05 8.05 3.45 5.85q-4.35-3-4.75-3.6V7.75h.85l.45.3m-.6-5.25 4.35 3-4.75.15-.6-1.5 1-1.65" transform="translate(19.15 8.85)"/><path d="m.6 9.15 1.1 1q.95.5 2.4.4 2-.1 2.9-1.2l-1.65 1.9Q4 12.45 2.9 12.4q-.55-.05-2.7-2.35L-1.55 8l1-.05q.5.15 1.15 1.2m-7.35-4.3.3 1.45-.9 3.65-.15-3 .75-2.1M-6.95.6l-1 2.35L-8 1.3l-.85-3.2 1.9 2.5m2.2.95-.5 1.05-.45-.8.25-2.5.7 2.25" fill="#878787" transform="translate(19.15 8.85)"/><path d="m-1.6 6.8.25-.1.6-1q.15 1.9-.5 5.25Q-1.6 9.4-1.6 6.8" fill="#878787" transform="translate(19.15 8.85)"/><path d="M-13.4 5.45q.4-.95.8-.9.55 0 .8 2.55.75-.25 1.7-1.75l-.1 1.6-.5.65-1.75 1.75L-14.2 11q.25-.55.4-1.75l1.1-1.95-2.9 1.75.6-1.4 1-.95.6-1.25" fill="#333" transform="translate(19.15 8.85)"/><path d="m-9.25 4.45.4 1-2.35 2.35.45-1.2 1.5-2.15m-3.6.75.5.5-2 2.05 1.5-2.55" fill="#878787" transform="translate(19.15 8.85)"/><path d="m-1.35 7.45.4-1 .25 2-.5 1.6-.15-2.6m1.55.6L.95 9.3l1.25 2.85-1.65-1.5-.35-2.6" fill="#fff" transform="translate(19.15 8.85)"/><path d="m-2.5-4.7.25 1.05q0 1.5-.75 1.6.6-1.8.5-2.65m5.55 6.45 1.6-2.2q.2 3.65-1.7 4.35-.35-.9.1-2.15M8 .55l-.15 2q-.35 1.1-1.5 1.05Q6.3 2.6 8 .55" fill="#333" transform="translate(19.15 8.85)"/><path d="M12.85 8.25V6.4l2.3 2.3-1.8-.3q.6.85.5 1.85l-1.2-.7.3 2.2Q12.45 10 11.3 9l.5-.45q.5.15.6-.6l.45.3" fill="#5e5e5e" transform="translate(19.15 8.85)"/><path d="M6.85 7.05 7.7 8q1.45 2.1.6 6.55l-.6-2.85q-.65-1.8-.75-2.75l-.1-1.9" fill="#333" transform="translate(19.15 8.85)"/><path d="M12.9 12.95q2.05 2.75 1.15 7.5l-.7 3.1-2.45 2.5q1.25-3.95 1.4-6.25v-4.35q-.8-2.85-.65-4.25l1.25 1.75" transform="translate(19.15 8.85)"/><path d="m13.5 17.6-.5-5.15q1.4 1.6 3.3 5.3 1.1 2.05 1.2 5.5l-1.6-2.05-2.4-3.6" transform="translate(19.15 8.85)"/><path d="M13.25 11.85q2.55 1.35 4.2 4.75-1.35 0-2.65-1-1.25-.95-1.65-2.25l.1-1.5m-26.9-1.1-.65 3.05q0 3.3-.3 3.65-.45.55-2.15.8l-2.35.25 2.65-3.8q1.95-3.1 2.8-3.95" transform="translate(19.15 8.85)"/><path d="m-16.1 17 .45 2.3q-.15 1.7-3.45 3.6-.3-2.7 3-5.9" transform="translate(19.15 8.85)"/></g></defs></svg>

<?xml version="1.0" encoding="UTF-8" standalone="no"?>
<svg xmlns:xlink="http://www.w3.org/1999/xlink" height="92.9px" width="100.7px" xmlns="http://www.w3.org/2000/svg">
  <g transform="matrix(1.0, 0.0, 0.0, 1.0, 38.65, 49.75)">
    <use height="34.9" transform="matrix(1.0, 0.0, 0.0, 1.0, -19.15, -8.85)" width="38.25" xlink:href="#shape0"/>
  </g>
  <defs>
    <g id="shape0" transform="matrix(1.0, 0.0, 0.0, 1.0, 19.15, 8.85)">
      <path d="M17.05 -8.45 Q19.2 -8.1 10.65 8.55 L8.75 8.55 4.9 0.7 10.3 -4.0 Q15.95 -8.65 17.05 -8.45" fill="#000000" fill-rule="evenodd" stroke="none"/>
      <path d="M16.9 -7.95 Q17.75 -7.95 11.25 5.55 L7.4 -0.15 11.85 -4.05 Q16.35 -7.95 16.9 -7.95" fill="#fff9f5" fill-rule="evenodd" stroke="none"/>
      <path d="M10.15 2.45 L16.55 -6.3 11.9 4.3 10.3 4.45 10.15 2.45" fill="#d1b8a7" fill-rule="evenodd" stroke="none"/>
      <path d="M-14.5 -0.8 Q-17.65 -8.25 -16.45 -8.8 -15.25 -9.3 -6.4 -1.8 L-4.45 0.3 -9.7 7.7 -11.1 6.55 -14.5 -0.8" fill="#000000" fill-rule="evenodd" stroke="none"/>
      <path d="M-13.55 -1.2 Q-16.6 -7.95 -16.05 -7.95 L-6.55 -0.15 -10.4 5.55 -13.55 -1.2" fill="#fff9f5" fill-rule="evenodd" stroke="none"/>
      <path d="M-7.45 2.3 L-14.2 -6.3 -5.95 0.3 -7.45 2.3" fill="#d1b8a7" fill-rule="evenodd" stroke="none"/>
      <path d="M1.0 3.15 L3.75 5.4 Q3.85 6.05 1.85 7.9 L-1.85 7.05 -4.8 6.9 -7.65 7.65 Q-12.55 8.65 -10.35 5.85 -8.4 3.4 -3.9 3.3 L1.0 3.15" fill="#000000" fill-rule="evenodd" stroke="none"/>
      <path d="M3.2 1.3 Q3.8 1.05 6.3 4.2 9.0 7.6 9.3 12.3 9.55 16.05 8.45 20.55 1.95 16.65 0.45 14.3 L-2.7 6.3 3.2 1.3" fill="#000000" fill-rule="evenodd" stroke="none"/>
      <path d="M-4.2 5.05 Q-5.75 5.2 -8.95 8.2 L-16.2 16.45 -14.1 10.05 Q-13.1 6.9 -9.45 3.15 -5.9 -0.5 -3.75 -0.95 3.8 -2.45 8.65 1.45 10.05 2.6 11.65 5.75 13.25 8.85 13.9 11.55 14.8 15.05 14.55 20.3 L7.65 4.3 -4.2 5.05" fill="#000000" fill-rule="evenodd" stroke="none"/>
      <path d="M-11.45 10.85 L-12.65 12.65 Q-13.25 13.45 -13.25 14.55 -13.25 16.75 -13.65 18.4 -14.15 20.25 -14.85 19.25 -16.75 16.6 -15.0 12.85 -12.95 8.45 -11.45 8.35 -9.15 8.2 -11.45 10.85" fill="#000000" fill-rule="evenodd" stroke="none"/>
      <path d="M-3.1 6.9 L-4.5 6.95 -2.7 4.15 Q-2.45 5.0 -3.1 6.9" fill="#ffffff" fill-rule="evenodd" stroke="none"/>
      <path d="M11.45 -5.6 Q11.65 -3.45 10.25 0.7 8.6 5.4 6.6 5.45 L-0.5 -1.0 0.8 -4.55 2.05 -6.15 Q2.75 -7.0 2.8 -7.9 3.3 -7.3 3.1 -2.25 3.2 -3.3 4.3 -4.85 L5.95 -7.2 Q6.75 -6.05 6.9 -4.35 L7.0 -1.2 11.45 -5.6" fill="#000000" fill-rule="evenodd" stroke="none"/>
      <path d="M-10.4 -4.8 L-8.45 -2.65 Q-7.25 -1.2 -6.45 -0.85 L-6.4 -5.25 Q-4.7 -3.85 -3.3 -1.9 -3.5 -4.7 -1.95 -7.25 L-0.5 -4.0 Q0.45 -2.05 -0.35 -0.65 L-2.1 0.9 Q-6.05 5.75 -8.2 4.75 -9.0 4.4 -9.25 2.95 L-9.55 0.7 Q-10.45 -3.3 -10.4 -4.8" fill="#000000" fill-rule="evenodd" stroke="none"/>
      <path d="M-0.4 2.35 Q-3.35 3.75 -4.25 3.7 L-4.3 2.9 Q-4.8 3.45 -5.45 3.35 -6.2 2.8 -6.5 2.85 L-6.95 3.6 -7.6 3.75 -8.35 4.55 Q-9.25 3.65 -8.6 3.3 L-8.6 2.7 Q-8.6 -1.15 -8.75 -1.55 -8.3 -1.15 -7.75 0.05 L-6.6 1.35 -5.85 0.15 -5.25 2.1 -4.95 2.2 -3.35 0.9 -3.25 2.45 -0.4 2.35" fill="#333333" fill-rule="evenodd" stroke="none"/>
      <path d="M-8.5 6.3 L-4.85 4.45 -4.85 6.55 -7.5 12.45 -8.5 6.3" fill="#000000" fill-rule="evenodd" stroke="none"/>
      <path d="M-2.95 6.7 L-0.35 4.05 Q1.05 6.95 1.05 10.2 1.05 13.45 -1.2 16.2 L-2.7 11.3 -2.95 6.7" fill="#000000" fill-rule="evenodd" stroke="none"/>
      <path d="M0.9 5.4 Q1.2 5.55 1.95 7.2 4.4 15.8 4.15 15.85 3.6 16.0 2.0 14.4 0.65 13.05 0.2 11.55 L0.2 9.3 -0.05 7.7 Q0.05 6.9 0.9 5.4" fill="#333333" fill-rule="evenodd" stroke="none"/>
      <path d="M1.85 8.0 L2.9 8.8 Q3.9 9.6 4.4 9.65 5.85 9.75 7.65 8.05 L7.6 9.95 Q6.85 12.9 4.2 12.9 2.7 12.85 1.55 10.45 L1.85 8.0" fill="#333333" fill-rule="evenodd" stroke="none"/>
      <path d="M-13.1 23.05 Q-14.95 23.15 -15.9 21.2 L-16.45 19.25 -15.95 16.25 -13.6 13.55 -14.25 16.15 Q-14.6 19.05 -13.1 20.55 -10.7 22.9 -9.6 17.05 L-8.95 19.75 Q-10.1 22.9 -13.1 23.05" fill="#000000" fill-rule="evenodd" stroke="none"/>
      <path d="M-11.65 3.95 L-9.9 5.95 -12.0 8.55 Q-12.75 9.3 -18.15 10.8 L-15.75 7.7 Q-14.4 5.95 -11.65 3.95" fill="#000000" fill-rule="evenodd" stroke="none"/>
      <path d="M-14.45 8.8 L-14.1 8.55 -13.35 8.55 Q-12.95 10.2 -13.35 10.7 L-17.35 13.7 -14.45 8.8" fill="#000000" fill-rule="evenodd" stroke="none"/>
      <path d="M-12.45 2.8 L-11.45 4.45 Q-11.6 5.95 -12.1 5.95 L-16.85 5.8 -12.45 2.8" fill="#000000" fill-rule="evenodd" stroke="none"/>
      <path d="M13.0 8.55 L10.85 5.95 12.6 3.95 16.75 7.7 19.1 10.8 Q13.75 9.3 13.0 8.55" fill="#000000" fill-rule="evenodd" stroke="none"/>
      <path d="M14.05 8.05 L17.5 13.9 Q13.15 10.9 12.75 10.3 L12.75 7.75 13.6 7.75 14.05 8.05" fill="#000000" fill-rule="evenodd" stroke="none"/>
      <path d="M13.45 2.8 L17.8 5.8 13.05 5.95 12.45 4.45 13.45 2.8" fill="#000000" fill-rule="evenodd" stroke="none"/>
      <path d="M0.6 9.15 L1.7 10.15 Q2.65 10.65 4.1 10.55 6.1 10.45 7.0 9.35 L5.35 11.25 Q4.0 12.45 2.9 12.4 2.35 12.35 0.2 10.05 L-1.55 8.0 -0.55 7.95 Q-0.05 8.1 0.6 9.15" fill="#878787" fill-rule="evenodd" stroke="none"/>
      <path d="M-6.75 4.85 L-6.45 6.3 -7.35 9.95 -7.5 6.95 -6.75 4.85" fill="#878787" fill-rule="evenodd" stroke="none"/>
      <path d="M-6.95 0.6 L-7.95 2.95 -8.0 1.3 -8.85 -1.9 -6.95 0.6" fill="#878787" fill-rule="evenodd" stroke="none"/>
      <path d="M-4.75 1.55 L-5.25 2.6 -5.7 1.8 -5.45 -0.7 -4.75 1.55" fill="#878787" fill-rule="evenodd" stroke="none"/>
      <path d="M-1.6 6.8 L-1.35 6.7 -0.75 5.7 Q-0.6 7.6 -1.25 10.95 -1.6 9.4 -1.6 6.8" fill="#878787" fill-rule="evenodd" stroke="none"/>
      <path d="M-13.4 5.45 Q-13.0 4.5 -12.6 4.55 -12.05 4.55 -11.8 7.1 -11.05 6.85 -10.1 5.35 L-10.2 6.95 -10.7 7.6 -12.45 9.35 -14.2 11.0 Q-13.95 10.45 -13.8 9.25 L-12.7 7.3 -15.6 9.05 -15.0 7.65 -14.0 6.7 -13.4 5.45" fill="#333333" fill-rule="evenodd" stroke="none"/>
      <path d="M-9.25 4.45 L-8.85 5.45 -11.2 7.8 -10.75 6.6 -9.25 4.45" fill="#878787" fill-rule="evenodd" stroke="none"/>
      <path d="M-12.85 5.2 L-12.35 5.7 -14.35 7.75 -12.85 5.2" fill="#878787" fill-rule="evenodd" stroke="none"/>
      <path d="M-1.35 7.45 L-0.95 6.45 -0.7 8.45 -1.2 10.05 -1.35 7.45" fill="#ffffff" fill-rule="evenodd" stroke="none"/>
      <path d="M0.2 8.05 L0.95 9.3 2.2 12.15 0.55 10.65 0.2 8.05" fill="#ffffff" fill-rule="evenodd" stroke="none"/>
      <path d="M-2.5 -4.7 L-2.25 -3.65 Q-2.25 -2.15 -3.0 -2.05 -2.4 -3.85 -2.5 -4.7" fill="#333333" fill-rule="evenodd" stroke="none"/>
      <path d="M3.05 1.75 L4.65 -0.45 Q4.85 3.2 2.95 3.9 2.6 3.0 3.05 1.75" fill="#333333" fill-rule="evenodd" stroke="none"/>
      <path d="M8.0 0.55 L7.85 2.55 Q7.5 3.65 6.35 3.6 6.3 2.6 8.0 0.55" fill="#333333" fill-rule="evenodd" stroke="none"/>
      <path d="M12.85 8.25 L12.85 6.4 15.15 8.7 13.35 8.4 Q13.95 9.25 13.85 10.25 L12.65 9.55 12.95 11.75 Q12.45 10.0 11.3 9.0 L11.8 8.55 Q12.3 8.7 12.4 7.95 L12.85 8.25" fill="#5e5e5e" fill-rule="evenodd" stroke="none"/>
      <path d="M6.85 7.05 L7.7 8.0 Q9.15 10.1 8.3 14.55 L7.7 11.7 Q7.05 9.9 6.95 8.95 L6.85 7.05" fill="#333333" fill-rule="evenodd" stroke="none"/>
      <path d="M12.9 12.95 Q14.95 15.7 14.05 20.45 L13.35 23.55 10.9 26.05 Q12.15 22.1 12.3 19.8 L12.3 15.45 Q11.5 12.6 11.65 11.2 L12.9 12.95" fill="#000000" fill-rule="evenodd" stroke="none"/>
      <path d="M13.5 17.6 L13.0 12.45 Q14.4 14.05 16.3 17.75 17.4 19.8 17.5 23.25 L15.9 21.2 13.5 17.6" fill="#000000" fill-rule="evenodd" stroke="none"/>
      <path d="M13.25 11.85 Q15.8 13.2 17.45 16.6 16.1 16.6 14.8 15.6 13.55 14.65 13.15 13.35 L13.25 11.85" fill="#000000" fill-rule="evenodd" stroke="none"/>
      <path d="M-13.65 10.75 L-14.3 13.8 Q-14.3 17.1 -14.6 17.45 -15.05 18.0 -16.75 18.25 L-19.1 18.5 -16.45 14.7 Q-14.5 11.6 -13.65 10.75" fill="#000000" fill-rule="evenodd" stroke="none"/>
      <path d="M-16.1 17.0 L-15.65 19.3 Q-15.8 21.0 -19.1 22.9 -19.4 20.2 -16.1 17.0" fill="#000000" fill-rule="evenodd" stroke="none"/>
    </g>
  </defs>
</svg>
